;FLAVOR:Marlin
;TIME:3779
;Filament used: 2.31454m
;Layer height: 0.2
;MINX:87.501
;MINY:106.223
;MINZ:0.2
;MAXX:134.743
;MAXY:180.093
;MAXZ:15
;Generated with Cura_SteamEngine 4.8.0
M140 S60
M105
M190 S60
M104 S200
M105
M109 S200
M82 ;absolute extrusion mode
; Ender 3 Custom Start G-code
G92 E0 ; Reset Extruder
G28 ; Home all axes
G1 Z2.0 F3000 ; Move Z Axis up little to prevent scratching of Heat Bed
G1 X0.1 Y20 Z0.3 F5000.0 ; Move to start position
G1 X0.1 Y200.0 Z0.3 F1500.0 E15 ; Draw the first line
G1 X0.4 Y200.0 Z0.3 F5000.0 ; Move to side a little
G1 X0.4 Y20 Z0.3 F1500.0 E30 ; Draw the second line
G92 E0 ; Reset Extruder
G1 Z2.0 F3000 ; Move Z Axis up little to prevent scratching of Heat Bed
G1 X5 Y20 Z0.3 F5000.0 ; Move over to prevent blob squish
G92 E0
G92 E0
G1 F1500 E-6.5
;LAYER_COUNT:75
;LAYER:0
M107
G0 F6000 X90.811 Y107.978 Z0.2
;TYPE:SKIRT
G1 F1500 E0
G1 F1200 X91.447 Y107.511 E0.02624
G1 X92.127 Y107.11 E0.0525
G1 X92.845 Y106.78 E0.07878
G1 X93.592 Y106.525 E0.10504
G1 X94.361 Y106.346 E0.1313
G1 X95.145 Y106.246 E0.15758
G1 X95.74 Y106.223 E0.17739
G1 X97.906 Y106.223 E0.24943
G1 X98.316 Y106.244 E0.26308
G1 X98.421 Y106.233 E0.2666
G1 X98.823 Y106.223 E0.27997
G1 X126.826 Y106.223 E1.21135
G1 X127.615 Y106.263 E1.23763
G1 X128.395 Y106.382 E1.26387
G1 X129.16 Y106.58 E1.29016
G1 X129.9 Y106.854 E1.3164
G1 X130.609 Y107.202 E1.34267
G1 X131.28 Y107.62 E1.36896
G1 X131.904 Y108.103 E1.39521
G1 X132.341 Y108.508 E1.41503
G1 X132.458 Y108.625 E1.42053
G1 X132.988 Y109.211 E1.44681
G1 X133.455 Y109.847 E1.47305
G1 X133.856 Y110.527 E1.49931
G1 X134.186 Y111.245 E1.52559
G1 X134.441 Y111.992 E1.55184
G1 X134.62 Y112.761 E1.5781
G1 X134.72 Y113.545 E1.60439
G1 X134.743 Y114.14 E1.6242
G1 X134.743 Y137.726 E2.40867
G1 X134.703 Y138.515 E2.43495
G1 X134.584 Y139.295 E2.46119
G1 X134.386 Y140.06 E2.48747
G1 X134.112 Y140.8 E2.51372
G1 X133.764 Y141.509 E2.53999
G1 X133.346 Y142.18 E2.56628
G1 X132.863 Y142.804 E2.59252
G1 X132.458 Y143.241 E2.61234
G1 X132.341 Y143.358 E2.61785
G1 X131.755 Y143.888 E2.64412
G1 X131.119 Y144.355 E2.67037
G1 X130.439 Y144.756 E2.69662
G1 X129.721 Y145.086 E2.72291
G1 X129.403 Y145.195 E2.73409
G1 X129.812 Y145.808 E2.7586
G1 X129.967 Y146.068 E2.76867
G1 X130.312 Y146.715 E2.79305
G1 X130.436 Y146.976 E2.80266
G1 X130.731 Y147.683 E2.82814
G1 X130.831 Y147.961 E2.83797
G1 X131.061 Y148.722 E2.86441
G1 X131.132 Y149.008 E2.87421
G1 X131.282 Y149.773 E2.90014
G1 X131.324 Y150.064 E2.90992
G1 X131.391 Y150.732 E2.93225
G1 X131.408 Y151.029 E2.94214
G1 X131.421 Y151.475 E2.95698
G1 X131.421 Y169.291 E3.54955
G1 X131.41 Y169.705 E3.56332
G1 X131.394 Y170.006 E3.57335
G1 X131.32 Y170.743 E3.59798
G1 X131.276 Y171.038 E3.6079
G1 X131.131 Y171.766 E3.63259
G1 X131.063 Y172.04 E3.64198
G1 X130.829 Y172.812 E3.66881
G1 X130.73 Y173.086 E3.6785
G1 X130.44 Y173.781 E3.70355
G1 X130.308 Y174.059 E3.71379
G1 X129.97 Y174.694 E3.73771
G1 X129.824 Y174.94 E3.74723
G1 X129.377 Y175.61 E3.77401
G1 X129.195 Y175.855 E3.78417
G1 X128.714 Y176.441 E3.80938
G1 X128.521 Y176.654 E3.81894
G1 X127.962 Y177.212 E3.84521
G1 X127.74 Y177.412 E3.85515
G1 X127.159 Y177.887 E3.88011
G1 X126.932 Y178.055 E3.8895
G1 X126.286 Y178.485 E3.91531
G1 X126.026 Y178.64 E3.92538
G1 X125.374 Y178.988 E3.94996
G1 X125.102 Y179.117 E3.95997
G1 X124.35 Y179.426 E3.98702
G1 X124.083 Y179.52 E3.99643
G1 X123.379 Y179.732 E4.02088
G1 X123.09 Y179.804 E4.03079
G1 X122.344 Y179.951 E4.05608
G1 X122.053 Y179.994 E4.06586
G1 X121.279 Y180.069 E4.09173
G1 X120.981 Y180.083 E4.10165
G1 X120.615 Y180.092 E4.11383
G1 X98.304 Y180.093 E4.85589
G1 X97.94 Y180.085 E4.868
G1 X97.64 Y180.071 E4.87799
G1 X96.846 Y179.993 E4.90453
G1 X96.553 Y179.949 E4.91438
G1 X95.782 Y179.793 E4.94055
G1 X95.492 Y179.719 E4.9505
G1 X94.78 Y179.5 E4.97528
G1 X94.516 Y179.405 E4.98461
G1 X93.812 Y179.113 E5.00996
G1 X93.536 Y178.982 E5.02012
G1 X92.872 Y178.626 E5.04518
G1 X92.625 Y178.478 E5.05475
G1 X91.966 Y178.036 E5.08115
G1 X91.725 Y177.856 E5.09115
G1 X91.186 Y177.414 E5.11433
G1 X90.973 Y177.223 E5.12385
G1 X90.354 Y176.603 E5.15299
G1 X90.151 Y176.375 E5.16314
G1 X89.737 Y175.868 E5.18491
G1 X89.563 Y175.636 E5.19456
G1 X89.1 Y174.945 E5.22222
G1 X88.953 Y174.698 E5.23178
G1 X88.606 Y174.047 E5.25632
G1 X88.472 Y173.764 E5.26674
G1 X88.157 Y172.994 E5.29441
G1 X88.066 Y172.733 E5.3036
G1 X87.864 Y172.057 E5.32707
G1 X87.792 Y171.769 E5.33694
G1 X87.642 Y171.013 E5.36257
G1 X87.599 Y170.721 E5.37239
G1 X87.525 Y169.965 E5.39766
G1 X87.511 Y169.678 E5.40721
G1 X87.502 Y169.298 E5.41985
G1 X87.501 Y151.527 E6.01092
G1 X87.508 Y151.196 E6.02193
G1 X87.523 Y150.843 E6.03368
G1 X87.6 Y150.03 E6.06085
G1 X87.643 Y149.74 E6.0706
G1 X87.796 Y148.974 E6.09658
G1 X87.87 Y148.681 E6.10663
G1 X88.095 Y147.946 E6.13219
G1 X88.188 Y147.688 E6.14132
G1 X88.484 Y146.979 E6.16687
G1 X88.615 Y146.704 E6.177
G1 X88.966 Y146.049 E6.20172
G1 X89.123 Y145.787 E6.21188
G1 X89.56 Y145.134 E6.23801
G1 X89.724 Y144.914 E6.24714
G1 X90.184 Y144.354 E6.27124
G1 X90.394 Y144.121 E6.28167
G1 X90.714 Y143.803 E6.29668
G1 X90.662 Y143.763 E6.29886
G1 X90.225 Y143.358 E6.31868
G1 X90.108 Y143.241 E6.32418
G1 X89.578 Y142.655 E6.35046
G1 X89.111 Y142.019 E6.3767
G1 X88.71 Y141.339 E6.40296
G1 X88.38 Y140.621 E6.42924
G1 X88.125 Y139.874 E6.45549
G1 X87.946 Y139.105 E6.48176
G1 X87.846 Y138.321 E6.50804
G1 X87.823 Y137.726 E6.52785
G1 X87.823 Y114.14 E7.31232
G1 X87.863 Y113.351 E7.3386
G1 X87.982 Y112.571 E7.36484
G1 X88.18 Y111.806 E7.39112
G1 X88.454 Y111.066 E7.41737
G1 X88.802 Y110.357 E7.44364
G1 X89.22 Y109.686 E7.46993
G1 X89.703 Y109.062 E7.49618
G1 X90.108 Y108.625 E7.51599
G1 X90.225 Y108.508 E7.5215
G1 X90.811 Y107.978 E7.54778
G0 F6000 X91.079 Y108.276
G1 F1200 X91.701 Y107.823 E7.57337
G1 X92.366 Y107.437 E7.59894
G1 X93.068 Y107.122 E7.62453
G1 X93.799 Y106.882 E7.65012
G1 X94.55 Y106.719 E7.67568
G1 X95.315 Y106.635 E7.70128
G1 X95.74 Y106.623 E7.71542
G1 X97.906 Y106.623 E7.78746
G1 X98.388 Y106.648 E7.80352
G1 X98.823 Y106.623 E7.81801
G1 X126.826 Y106.623 E8.74939
G1 X127.594 Y106.663 E8.77497
G1 X128.354 Y106.782 E8.80056
G1 X129.097 Y106.98 E8.82613
G1 X129.816 Y107.254 E8.85172
G1 X130.502 Y107.601 E8.87729
G1 X131.149 Y108.017 E8.90288
G1 X131.749 Y108.498 E8.92845
G1 X132.059 Y108.79 E8.94262
G1 X132.176 Y108.907 E8.94812
G1 X132.69 Y109.479 E8.9737
G1 X133.143 Y110.101 E8.99929
G1 X133.529 Y110.766 E9.02486
G1 X133.844 Y111.468 E9.05046
G1 X134.084 Y112.199 E9.07605
G1 X134.247 Y112.95 E9.10161
G1 X134.331 Y113.715 E9.1272
G1 X134.343 Y114.14 E9.14134
G1 X134.343 Y137.726 E9.92582
G1 X134.303 Y138.494 E9.9514
G1 X134.184 Y139.254 E9.97698
G1 X133.986 Y139.997 E10.00256
G1 X133.712 Y140.716 E10.02815
G1 X133.365 Y141.402 E10.05372
G1 X132.949 Y142.049 E10.0793
G1 X132.468 Y142.649 E10.10488
G1 X132.176 Y142.959 E10.11904
G1 X132.059 Y143.076 E10.12455
G1 X131.487 Y143.59 E10.15012
G1 X130.865 Y144.043 E10.17572
G1 X130.2 Y144.429 E10.20129
G1 X129.498 Y144.744 E10.22688
G1 X128.767 Y144.984 E10.25247
G1 X128.888 Y145.167 E10.25977
G1 X129.057 Y145.395 E10.26921
G1 X129.468 Y146.013 E10.29389
G1 X129.623 Y146.273 E10.30396
G1 X129.951 Y146.886 E10.32708
G1 X130.075 Y147.147 E10.3367
G1 X130.354 Y147.818 E10.36087
G1 X130.454 Y148.096 E10.37069
G1 X130.673 Y148.818 E10.39579
G1 X130.744 Y149.104 E10.40559
G1 X130.886 Y149.83 E10.43019
G1 X130.928 Y150.121 E10.43997
G1 X130.992 Y150.755 E10.46116
G1 X131.009 Y151.052 E10.47106
G1 X131.021 Y151.475 E10.48513
G1 X131.021 Y169.291 E11.0777
G1 X131.011 Y169.684 E11.09077
G1 X130.995 Y169.985 E11.1008
G1 X130.924 Y170.684 E11.12417
G1 X130.88 Y170.979 E11.13409
G1 X130.743 Y171.669 E11.15748
G1 X130.675 Y171.943 E11.16687
G1 X130.453 Y172.676 E11.19235
G1 X130.354 Y172.95 E11.20204
G1 X130.079 Y173.609 E11.22579
G1 X129.947 Y173.887 E11.23602
G1 X129.626 Y174.49 E11.25874
G1 X129.48 Y174.736 E11.26826
G1 X129.056 Y175.372 E11.29368
G1 X128.874 Y175.617 E11.30383
G1 X128.418 Y176.173 E11.32775
G1 X128.225 Y176.386 E11.33731
G1 X127.694 Y176.915 E11.36224
G1 X127.472 Y177.115 E11.37218
G1 X126.921 Y177.565 E11.39584
G1 X126.694 Y177.733 E11.40523
G1 X126.081 Y178.141 E11.42972
G1 X125.821 Y178.296 E11.43979
G1 X125.203 Y178.626 E11.46309
G1 X124.931 Y178.755 E11.4731
G1 X124.217 Y179.049 E11.49879
G1 X123.95 Y179.143 E11.5082
G1 X123.282 Y179.344 E11.5314
G1 X122.993 Y179.416 E11.54131
G1 X122.286 Y179.556 E11.56528
G1 X121.995 Y179.599 E11.57506
G1 X121.26 Y179.67 E11.59962
G1 X120.962 Y179.684 E11.60955
G1 X120.615 Y179.692 E11.62109
G1 X98.304 Y179.693 E12.36316
G1 X97.959 Y179.685 E12.37464
G1 X97.659 Y179.671 E12.38462
G1 X96.905 Y179.597 E12.40982
G1 X96.612 Y179.553 E12.41968
G1 X95.881 Y179.405 E12.44448
G1 X95.591 Y179.331 E12.45444
G1 X94.915 Y179.124 E12.47795
G1 X94.651 Y179.029 E12.48728
G1 X93.984 Y178.751 E12.51132
G1 X93.708 Y178.62 E12.52148
G1 X93.078 Y178.283 E12.54524
G1 X92.831 Y178.135 E12.55482
G1 X92.206 Y177.716 E12.57985
G1 X91.965 Y177.536 E12.58985
G1 X91.453 Y177.116 E12.61188
G1 X91.24 Y176.925 E12.62139
G1 X90.653 Y176.337 E12.64903
G1 X90.45 Y176.109 E12.65918
G1 X90.057 Y175.628 E12.67984
G1 X89.883 Y175.396 E12.68949
G1 X89.444 Y174.741 E12.71571
G1 X89.297 Y174.494 E12.72527
G1 X88.968 Y173.876 E12.74856
G1 X88.834 Y173.593 E12.75897
G1 X88.535 Y172.862 E12.78524
G1 X88.444 Y172.601 E12.79443
G1 X88.252 Y171.96 E12.81669
G1 X88.18 Y171.672 E12.82656
G1 X88.038 Y170.955 E12.85087
G1 X87.995 Y170.663 E12.86069
G1 X87.925 Y169.946 E12.88465
G1 X87.911 Y169.659 E12.89421
G1 X87.902 Y169.298 E12.90622
G1 X87.901 Y151.527 E13.49729
G1 X87.908 Y151.213 E13.50773
G1 X87.923 Y150.86 E13.51948
G1 X87.996 Y150.089 E13.54524
G1 X88.039 Y149.799 E13.55499
G1 X88.184 Y149.072 E13.57965
G1 X88.258 Y148.779 E13.5897
G1 X88.471 Y148.082 E13.61394
G1 X88.564 Y147.824 E13.62306
G1 X88.845 Y147.151 E13.64732
G1 X88.976 Y146.876 E13.65745
G1 X89.309 Y146.254 E13.68092
G1 X89.466 Y145.992 E13.69108
G1 X89.881 Y145.373 E13.71586
G1 X90.045 Y145.153 E13.72499
G1 X90.481 Y144.622 E13.74784
G1 X90.691 Y144.389 E13.75827
G1 X91.259 Y143.824 E13.78492
G1 X91.319 Y143.77 E13.7876
G1 X90.817 Y143.368 E13.80899
G1 X90.507 Y143.076 E13.82316
G1 X90.39 Y142.959 E13.82866
G1 X89.876 Y142.387 E13.85424
G1 X89.423 Y141.765 E13.87983
G1 X89.037 Y141.1 E13.90541
G1 X88.722 Y140.398 E13.931
G1 X88.482 Y139.667 E13.95659
G1 X88.319 Y138.916 E13.98215
G1 X88.235 Y138.151 E14.00775
G1 X88.223 Y137.726 E14.02189
G1 X88.223 Y114.14 E14.80636
G1 X88.263 Y113.372 E14.83194
G1 X88.382 Y112.612 E14.85752
G1 X88.58 Y111.869 E14.8831
G1 X88.854 Y111.15 E14.90869
G1 X89.201 Y110.464 E14.93426
G1 X89.617 Y109.817 E14.95984
G1 X90.098 Y109.217 E14.98542
G1 X90.39 Y108.907 E14.99958
G1 X90.507 Y108.79 E15.00509
G1 X91.079 Y108.276 E15.03067
G0 F6000 X91.347 Y108.573
G1 F1200 X91.953 Y108.136 E15.05552
G1 X92.603 Y107.765 E15.08041
G1 X93.289 Y107.466 E15.1053
G1 X94.003 Y107.242 E15.13019
G1 X94.736 Y107.095 E15.15505
G1 X95.74 Y107.023 E15.18853
G1 X97.906 Y107.023 E15.26057
G1 X98.293 Y107.044 E15.27346
G1 X98.306 Y107.042 E15.2739
G1 X98.823 Y107.023 E15.29111
G1 X126.826 Y107.023 E16.22249
G1 X127.573 Y107.063 E16.24737
G1 X128.311 Y107.182 E16.27223
G1 X129.033 Y107.38 E16.29714
G1 X129.729 Y107.653 E16.322
G1 X130.392 Y108 E16.34689
G1 X131.015 Y108.415 E16.37179
G1 X131.776 Y109.073 E16.40525
G1 X131.893 Y109.19 E16.41075
G1 X132.393 Y109.747 E16.43565
G1 X132.83 Y110.353 E16.4605
G1 X133.201 Y111.003 E16.48539
G1 X133.5 Y111.689 E16.51028
G1 X133.724 Y112.403 E16.53517
G1 X133.871 Y113.136 E16.56003
G1 X133.943 Y114.14 E16.59351
G1 X133.943 Y137.726 E17.37799
G1 X133.903 Y138.473 E17.40287
G1 X133.784 Y139.211 E17.42773
G1 X133.586 Y139.933 E17.45263
G1 X133.313 Y140.629 E17.4775
G1 X132.966 Y141.292 E17.50239
G1 X132.551 Y141.915 E17.52728
G1 X131.893 Y142.676 E17.56074
G1 X131.776 Y142.793 E17.56625
G1 X131.219 Y143.293 E17.59114
G1 X130.613 Y143.73 E17.61599
G1 X129.963 Y144.101 E17.64088
G1 X129.277 Y144.4 E17.66577
G1 X128.563 Y144.624 E17.69066
G1 X128.005 Y144.736 E17.70959
G1 X128.127 Y144.87 E17.71562
G1 X128.567 Y145.406 E17.73868
G1 X128.736 Y145.634 E17.74812
G1 X129.125 Y146.218 E17.77146
G1 X129.28 Y146.478 E17.78153
G1 X129.59 Y147.058 E17.8034
G1 X129.714 Y147.319 E17.81301
G1 X129.978 Y147.954 E17.83589
G1 X130.078 Y148.232 E17.84571
G1 X130.285 Y148.914 E17.86942
G1 X130.356 Y149.2 E17.87922
G1 X130.49 Y149.887 E17.9025
G1 X130.532 Y150.178 E17.91228
G1 X130.593 Y150.778 E17.93234
G1 X130.61 Y151.075 E17.94223
G1 X130.621 Y151.475 E17.95554
G1 X130.621 Y169.291 E18.5481
G1 X130.611 Y169.663 E18.56048
G1 X130.595 Y169.964 E18.57051
G1 X130.528 Y170.625 E18.5926
G1 X130.484 Y170.92 E18.60252
G1 X130.355 Y171.573 E18.62466
G1 X130.287 Y171.847 E18.63405
G1 X130.076 Y172.54 E18.65815
G1 X129.977 Y172.814 E18.66784
G1 X129.717 Y173.437 E18.69029
G1 X129.585 Y173.715 E18.70053
G1 X129.282 Y174.286 E18.72203
G1 X129.136 Y174.532 E18.73154
G1 X128.735 Y175.133 E18.75557
G1 X128.553 Y175.378 E18.76572
G1 X128.121 Y175.904 E18.78836
G1 X127.928 Y176.117 E18.79792
G1 X127.426 Y176.618 E18.82151
G1 X127.204 Y176.818 E18.83145
G1 X126.683 Y177.244 E18.85383
G1 X126.456 Y177.412 E18.86322
G1 X125.876 Y177.798 E18.8864
G1 X125.616 Y177.953 E18.89646
G1 X125.032 Y178.265 E18.91849
G1 X124.76 Y178.394 E18.9285
G1 X124.085 Y178.672 E18.95278
G1 X123.818 Y178.766 E18.96219
G1 X123.185 Y178.955 E18.98417
G1 X122.896 Y179.027 E18.99407
G1 X122.227 Y179.16 E19.01676
G1 X121.936 Y179.203 E19.02654
G1 X121.241 Y179.27 E19.04976
G1 X120.943 Y179.284 E19.05969
G1 X120.615 Y179.292 E19.0706
G1 X98.304 Y179.293 E19.81267
G1 X97.978 Y179.285 E19.82351
G1 X97.678 Y179.271 E19.8335
G1 X96.964 Y179.201 E19.85736
G1 X96.671 Y179.157 E19.86722
G1 X95.98 Y179.018 E19.89066
G1 X95.69 Y178.944 E19.90062
G1 X95.051 Y178.748 E19.92285
G1 X94.787 Y178.653 E19.93218
G1 X94.155 Y178.39 E19.95495
G1 X93.879 Y178.259 E19.96511
G1 X93.283 Y177.94 E19.98759
G1 X93.036 Y177.792 E19.99717
G1 X92.445 Y177.395 E20.02085
G1 X92.204 Y177.215 E20.03085
G1 X91.72 Y176.819 E20.05165
G1 X91.507 Y176.628 E20.06117
G1 X90.952 Y176.071 E20.08732
G1 X90.749 Y175.843 E20.09747
G1 X90.377 Y175.388 E20.11702
G1 X90.203 Y175.156 E20.12667
G1 X89.788 Y174.536 E20.15148
G1 X89.641 Y174.289 E20.16104
G1 X89.329 Y173.705 E20.18306
G1 X89.195 Y173.422 E20.19348
G1 X88.912 Y172.731 E20.21831
G1 X88.821 Y172.47 E20.22751
G1 X88.64 Y171.863 E20.24857
G1 X88.568 Y171.575 E20.25845
G1 X88.434 Y170.897 E20.28143
G1 X88.391 Y170.605 E20.29125
G1 X88.324 Y169.926 E20.31394
G1 X88.31 Y169.639 E20.3235
G1 X88.302 Y169.298 E20.33485
G1 X88.301 Y151.527 E20.92591
G1 X88.307 Y151.23 E20.93579
G1 X88.322 Y150.877 E20.94754
G1 X88.392 Y150.147 E20.97194
G1 X88.435 Y149.857 E20.98169
G1 X88.572 Y149.17 E21.00499
G1 X88.646 Y148.877 E21.01504
G1 X88.848 Y148.217 E21.03799
G1 X88.941 Y147.959 E21.04712
G1 X89.206 Y147.323 E21.07003
G1 X89.337 Y147.048 E21.08016
G1 X89.653 Y146.46 E21.10237
G1 X89.81 Y146.198 E21.11252
G1 X90.202 Y145.612 E21.13597
G1 X90.366 Y145.392 E21.1451
G1 X90.778 Y144.89 E21.1667
G1 X90.988 Y144.657 E21.17713
G1 X91.525 Y144.122 E21.20234
G1 X91.74 Y143.93 E21.21193
G1 X91.978 Y143.735 E21.22217
G1 X91.551 Y143.451 E21.23922
G1 X90.79 Y142.793 E21.27268
G1 X90.673 Y142.676 E21.27819
G1 X90.173 Y142.119 E21.30308
G1 X89.736 Y141.513 E21.32793
G1 X89.365 Y140.863 E21.35282
G1 X89.066 Y140.177 E21.37771
G1 X88.842 Y139.463 E21.4026
G1 X88.695 Y138.73 E21.42747
G1 X88.623 Y137.726 E21.46095
G1 X88.623 Y114.14 E22.24542
G1 X88.663 Y113.393 E22.2703
G1 X88.782 Y112.655 E22.29516
G1 X88.98 Y111.933 E22.32006
G1 X89.253 Y111.237 E22.34493
G1 X89.6 Y110.574 E22.36982
G1 X90.015 Y109.951 E22.39472
G1 X90.673 Y109.19 E22.42818
G1 X90.79 Y109.073 E22.43368
G1 X91.347 Y108.573 E22.45858
G0 F6000 X91.614 Y108.872
G1 F1200 X92.205 Y108.449 E22.48275
G1 X92.839 Y108.095 E22.5069
G1 X93.508 Y107.812 E22.53106
G1 X94.204 Y107.604 E22.55522
G1 X94.919 Y107.474 E22.57939
G1 X95.74 Y107.423 E22.60675
G1 X97.906 Y107.423 E22.67879
G1 X98.418 Y107.451 E22.69585
